logo.svg

<?xml version="1.0" encoding="UTF-8" standalone="no"?>
<svg
   xmlns:dc="http://purl.org/dc/elements/1.1/"
   xmlns:cc="http://creativecommons.org/ns#"
   xmlns:rdf="http://www.w3.org/1999/02/22-rdf-syntax-ns#"
   xmlns:svg="http://www.w3.org/2000/svg"
   xmlns="http://www.w3.org/2000/svg"
   xmlns:xlink="http://www.w3.org/1999/xlink"
   xmlns:sodipodi="http://sodipodi.sourceforge.net/DTD/sodipodi-0.dtd"
   xmlns:inkscape="http://www.inkscape.org/namespaces/inkscape"
   width="169.59792mm"
   height="84.883621mm"
   viewBox="0 0 169.59792 84.883621"
   version="1.1"
   id="svg8"
   inkscape:version="1.0.1 (3bc2e813f5, 2020-09-07)"
   sodipodi:docname="logo.svg">
  <defs
     id="defs2">
    <path
       d="M 88.77,184.08 V 288.1 h 40.96 c 1.49,-0.33 2.42,-0.54 2.79,-0.62 6.16,-1.35 11.62,-4.9 15.35,-9.99 0.28,-0.38 0.98,-1.34 2.11,-2.87 0.78,-3.18 1.26,-5.18 1.46,-5.97 1.67,-6.87 1.78,-14.04 0.31,-20.95 -0.73,-3.43 0.72,3.39 0.34,1.61 -2.35,-11.03 -11.84,-19.1 -23.11,-19.64 -0.66,-0.03 -2.3,-0.11 -4.94,-0.24 -7.42,0 -12.07,0 -13.92,0 0,0 -6.33,0 -6.33,0 -1.51,0 0.63,0 0,0 -4.82,0 -9.41,2.06 -12.61,5.66 -0.32,0.37 -1.12,1.27 -2.41,2.72 v -53.73 h 65.21 c 4.5,0.72 7.31,1.17 8.43,1.35 28.45,4.58 51.68,25.23 59.55,52.96 0.45,1.58 -2.58,-9.1 0,-0.01 1.49,5.27 2.25,10.72 2.25,16.2 0,4.41 0,10.03 0,14.61 0,4.93 -0.91,9.82 -2.68,14.42 -2.76,7.18 -0.82,2.14 -1.7,4.41 -7.62,19.8 -24.25,34.75 -44.75,40.21 -1.07,0.29 -3.76,1.01 -8.06,2.15 0.94,1.49 1.53,2.42 1.77,2.79 9.53,15.04 22.62,27.5 38.11,36.29 0.11,0.06 0.37,0.22 0.81,0.46 h 21.49 l 107.04,-134.71 -0.77,87.89 -42.16,52.42 h 42.16 l 0.77,-140.31 40.63,-51.13 h 136.51 v 30.23 c -10.82,2.57 -17.58,4.18 -20.29,4.82 -3.46,0.82 -6.25,3.39 -7.35,6.78 -0.15,0.47 -0.54,1.64 -1.15,3.52 l 46.06,140.49 41.46,-135.88 c 0.29,-1.78 0.47,-2.9 0.54,-3.34 1.13,-6.99 -3.75,-13.53 -10.77,-14.44 -2.01,-0.26 -7.05,-0.91 -15.1,-1.95 V 184.08 H 640 v 30.23 c -5.4,1.37 -8.78,2.22 -10.13,2.56 -8.97,2.27 -16.45,8.42 -20.41,16.78 -0.37,0.79 -1.31,2.76 -2.81,5.92 l -66.4,196.22 H 495.13 L 427.19,236.88 c -0.91,-2.2 -1.47,-3.57 -1.7,-4.12 -3.9,-9.46 -12.84,-15.87 -23.04,-16.53 -0.95,-0.06 -3.32,-0.21 -7.12,-0.46 v 154.15 h 25.33 v 65.87 H 395.33 V 503.9 H 335.47 V 435.79 H 174.66 L 105.96,334.07 H 88.68 v 53.74 c 0.46,2.34 0.74,3.8 0.86,4.39 0.52,2.71 2.47,4.93 5.09,5.79 0.54,0.18 1.88,0.62 4.03,1.33 h 21.11 v 36.47 H 0 v -36.47 h 19.98 c 0,0 0,0 0,0 4.61,-1.7 8.06,-5.63 9.15,-10.43 0.06,-0.25 0.21,-0.9 0.44,-1.93 V 239.57 c -0.3,-1.22 -0.48,-1.98 -0.56,-2.29 -1.04,-4.28 -3.76,-7.97 -7.54,-10.25 -0.2,-0.12 -0.7,-0.42 -1.49,-0.9 H 0 v -42.05 z"
       id="bvebNf14G" />
  </defs>
  <sodipodi:namedview
     id="base"
     pagecolor="#ffffff"
     bordercolor="#666666"
     borderopacity="1.0"
     inkscape:pageopacity="0.0"
     inkscape:pageshadow="2"
     inkscape:zoom="0.35"
     inkscape:cx="343.35714"
     inkscape:cy="208.98143"
     inkscape:document-units="mm"
     inkscape:current-layer="layer1"
     inkscape:document-rotation="0"
     showgrid="false"
     inkscape:window-width="1267"
     inkscape:window-height="728"
     inkscape:window-x="83"
     inkscape:window-y="0"
     inkscape:window-maximized="0" />
  <metadata
     id="metadata5">
    <rdf:RDF>
      <cc:Work
         rdf:about="">
        <dc:format>image/svg+xml</dc:format>
        <dc:type
           rdf:resource="http://purl.org/dc/dcmitype/StillImage" />
        <dc:title></dc:title>
      </cc:Work>
    </rdf:RDF>
  </metadata>
  <g
     inkscape:label="Layer 1"
     inkscape:groupmode="layer"
     id="layer1"
     transform="translate(-14.986757,-92.873664)">
    <g
       id="g19"
       transform="matrix(0.26458333,0,0,0.26458333,15.119049,44.301456)">
      <use
         xlink:href="#bvebNf14G"
         opacity="1"
         fill="#ffffff"
         fill-opacity="1"
         id="use13"
         x="0"
         y="0"
         width="100%"
         height="100%" />
      <g
         id="g17">
        <use
           xlink:href="#bvebNf14G"
           opacity="1"
           fill-opacity="0"
           stroke="#ffffff"
           stroke-width="1"
           stroke-opacity="1"
           id="use15"
           x="0"
           y="0"
           width="100%"
           height="100%" />
      </g>
    </g>
  </g>
</svg>

<?xml version="1.0" encoding="UTF-8" standalone="no"?>
<!DOCTYPE svg PUBLIC "-//W3C//DTD SVG 1.1//EN" "http://www.w3.org/Graphics/SVG/1.1/DTD/svg11.dtd">
<svg version="1.1" xmlns="http://www.w3.org/2000/svg" xmlns:xlink="http://www.w3.org/1999/xlink" preserveAspectRatio="xMidYMid meet" viewBox="0 0 640 640" width="640" height="640"><defs><path d="M88.77 184.08L88.77 288.1L129.73 288.1C131.22 287.77 132.15 287.56 132.52 287.48C138.68 286.13 144.14 282.58 147.87 277.49C148.15 277.11 148.85 276.15 149.98 274.62C150.76 271.44 151.24 269.44 151.44 268.65C153.11 261.78 153.22 254.61 151.75 247.7C151.02 244.27 152.47 251.09 152.09 249.31C149.74 238.28 140.25 230.21 128.98 229.67C128.32 229.64 126.68 229.56 124.04 229.43C116.62 229.43 111.97 229.43 110.12 229.43C110.12 229.43 103.79 229.43 103.79 229.43C102.28 229.43 104.42 229.43 103.79 229.43C98.97 229.43 94.38 231.49 91.18 235.09C90.86 235.46 90.06 236.36 88.77 237.81L88.77 184.08L153.98 184.08C158.48 184.8 161.29 185.25 162.41 185.43C190.86 190.01 214.09 210.66 221.96 238.39C222.41 239.97 219.38 229.29 221.96 238.38C223.45 243.65 224.21 249.1 224.21 254.58C224.21 258.99 224.21 264.61 224.21 269.19C224.21 274.12 223.3 279.01 221.53 283.61C218.77 290.79 220.71 285.75 219.83 288.02C212.21 307.82 195.58 322.77 175.08 328.23C174.01 328.52 171.32 329.24 167.02 330.38C167.96 331.87 168.55 332.8 168.79 333.17C178.32 348.21 191.41 360.67 206.9 369.46C207.01 369.52 207.27 369.68 207.71 369.92L229.2 369.92L336.24 235.21L335.47 323.1L293.31 375.52L335.47 375.52L336.24 235.21L376.87 184.08L513.38 184.08L513.38 214.31C502.56 216.88 495.8 218.49 493.09 219.13C489.63 219.95 486.84 222.52 485.74 225.91C485.59 226.38 485.2 227.55 484.59 229.43L530.65 369.92L572.11 234.04C572.4 232.26 572.58 231.14 572.65 230.7C573.78 223.71 568.9 217.17 561.88 216.26C559.87 216 554.83 215.35 546.78 214.31L546.78 184.08L640 184.08L640 214.31C634.6 215.68 631.22 216.53 629.87 216.87C620.9 219.14 613.42 225.29 609.46 233.65C609.09 234.44 608.15 236.41 606.65 239.57L540.25 435.79L495.13 435.79L427.19 236.88C426.28 234.68 425.72 233.31 425.49 232.76C421.59 223.3 412.65 216.89 402.45 216.23C401.5 216.17 399.13 216.02 395.33 215.77L395.33 369.92L420.66 369.92L420.66 435.79L395.33 435.79L395.33 503.9L335.47 503.9L335.47 435.79L174.66 435.79L105.96 334.07L88.68 334.07L88.68 387.81C89.14 390.15 89.42 391.61 89.54 392.2C90.06 394.91 92.01 397.13 94.63 397.99C95.17 398.17 96.51 398.61 98.66 399.32L119.77 399.32L119.77 435.79L0 435.79L0 399.32L19.98 399.32C19.98 399.32 19.98 399.32 19.98 399.32C24.59 397.62 28.04 393.69 29.13 388.89C29.19 388.64 29.34 387.99 29.57 386.96L29.57 239.57C29.27 238.35 29.09 237.59 29.01 237.28C27.97 233 25.25 229.31 21.47 227.03C21.27 226.91 20.77 226.61 19.98 226.13L0 226.13L0 184.08L88.77 184.08Z" id="bvebNf14G"></path></defs><g><g><g><use xlink:href="#bvebNf14G" opacity="1" fill="#ffffff" fill-opacity="1"></use><g><use xlink:href="#bvebNf14G" opacity="1" fill-opacity="0" stroke="#ffffff" stroke-width="1" stroke-opacity="1"></use></g></g></g></g></svg>
